!!!OTL: Shisong
!!!ARE: Asia, China,ˇnan Jiangxi, Lianhua
!! IV, 257
!!!SCT: C1689
!!!YEM: Copyright 1995, estate of Helmut Schaffrath.
**kern
*ICvox
*Ivox
!! Mixed meters:  2/4; 3/4
*M3/4
*k[]
*C:
{8a
8cc
8cc
16a
16g
=1
4e
4g
=2
8g
16g
16a
8cc
8ee
=3
2dd}
=4
{8a
8dd
8cc
16a
16g
=5
8.e
16g
4a
=6
8dd
16dd
16cc
16a
16g
16a
16cc
=7
2g}
=8
{8a
8a
8cc
8e
=9
4g
8g
8r
=10
8a
8a
8cc
8e
=11
4g
8g
8r}
=12
{8cc
8a
8cc
8ee
=13
4.dd
8cc
=14
8a
16a
16cc
16a
16g
8e
4g}
=15
*M2/4
{8cc
16cc
16a
16g
16e
8g
=16
8cc
16cc
16a
16g
16e
8g}
=17
{8ee
8dd
8ee
8dd
=18
8cc
8dd
8cc
8dd
=19
*M3/4
8a
16a
16cc
8e
8g
4a
=20
8cc
16cc
16a
16g
16e
4.g}
==
!!!AGN: Wuge, Dengge, MengjiangnÅ diao. NannÅ qing
!!!AMT: irregular
!!!AIN: vox
!!!EED: Helmut Schaffrath
!!!EEV: 1.0
*-
